source/img/sprite/boots.svg

<svg width="25" height="25" viewBox="0 0 25 25" fill="none" xmlns="http://www.w3.org/2000/svg">
<rect width="25" height="25" fill="white"/>
<path d="M24.6441 16.2662C25.4208 13.8339 24.7817 11.073 24.1026 9.15999C24.0981 9.08598 24.0753 9.01424 24.036 8.95138C23.8052 8.32997 23.5921 7.81953 23.4101 7.45112C23.7451 7.31774 23.9661 6.99494 23.9694 6.63442V2.93704C23.9694 2.44674 23.572 2.04932 23.0817 2.04932H12.176C11.9309 2.04887 11.7318 2.24722 11.7313 2.4924C11.7313 2.50156 11.7316 2.51071 11.7321 2.51981C11.883 5.18299 11.6877 6.98951 11.124 8.26339C11.1128 8.27604 11.1024 8.28941 11.093 8.30334C11.0913 8.32548 11.0913 8.34778 11.093 8.36992C10.8778 8.83364 10.5868 9.25814 10.2319 9.62605L10.1919 9.65268C10.1919 9.65268 10.1919 9.65268 10.1919 9.68375C9.67154 10.18 9.07139 10.5852 8.41647 10.8822C7.27541 11.3885 6.10439 11.8243 4.90995 12.1871L4.68358 12.2626C0.533467 13.6386 -0.00804501 16.1331 0.000832242 17.3848C-0.000277414 17.4025 -0.000277414 17.4203 0.000832242 17.438V20.6072C0.00149804 20.7614 0.0821146 20.9043 0.213886 20.9845C1.231 21.6033 2.32889 22.0783 3.47628 22.396C3.71224 22.4623 3.95737 22.3248 4.02373 22.0888C4.03621 22.0444 4.0417 21.9982 4.03998 21.9521V21.85H4.69246V22.2939C4.68963 22.5138 4.84825 22.7026 5.0653 22.7377C5.45146 22.7999 5.83762 22.8487 6.21491 22.8798C6.33852 22.8902 6.46086 22.8483 6.55224 22.7644C6.64357 22.6797 6.69511 22.5605 6.69428 22.4359V21.8767H7.34676V22.5069C7.34676 22.7521 7.5455 22.9508 7.79062 22.9508C8.16346 22.9508 8.53631 22.9508 8.93578 22.8975C9.16698 22.879 9.34486 22.6856 9.34414 22.4537V21.8767H9.99662V22.2673C9.99345 22.5124 10.1896 22.7137 10.4347 22.7168C10.4604 22.7172 10.4861 22.7153 10.5115 22.7111C11.3263 22.5863 12.1294 22.3949 12.9128 22.1385L12.9838 22.1075C16.0908 20.332 18.0616 21.7923 18.1415 21.8545C18.2189 21.9146 18.3142 21.9473 18.4123 21.9477H18.9626C19.2078 21.9477 19.4065 21.7489 19.4065 21.5038V20.7537H20.0412V21.4949C20.0412 21.7401 20.24 21.9388 20.4851 21.9388H21.9143C22.1594 21.9388 22.3582 21.7401 22.3582 21.4949V20.7537H23.0151V21.4949C23.0151 21.7401 23.2138 21.9388 23.459 21.9388H24.5553C24.8004 21.9388 24.9992 21.7401 24.9992 21.4949V16.7101C25.0035 16.4958 24.8541 16.3091 24.6441 16.2662ZM14.1112 2.94592H14.4752H23.0595V6.6211H14.1112V2.94592ZM8.53187 11.7965L8.53631 11.8232C8.90016 12.1186 9.23595 12.447 9.53944 12.8041C9.45893 12.938 9.41743 13.0917 9.41959 13.248C9.41654 13.7162 9.79366 14.0982 10.2618 14.1012C10.73 14.1043 11.112 13.7272 11.1151 13.259C11.118 12.8179 10.7821 12.4483 10.3428 12.4091C10.0621 12.0263 9.74223 11.6737 9.38852 11.3571C9.78517 11.1314 10.1583 10.8667 10.5026 10.567C10.9331 10.9709 11.3336 11.4056 11.701 11.8676C11.5466 12.3096 11.7798 12.7931 12.2218 12.9475C12.6638 13.1019 13.1473 12.8688 13.3017 12.4268C13.4561 11.9848 13.223 11.5013 12.781 11.3468C12.6893 11.3148 12.5928 11.2987 12.4956 11.2994H12.389C11.9997 10.8093 11.5755 10.3479 11.1196 9.919C11.3311 9.65851 11.5183 9.37921 11.6789 9.08454C12.366 9.44223 13.0301 9.84249 13.6674 10.283C13.663 10.7561 14.043 11.1431 14.5161 11.1475C14.9892 11.1519 15.3762 10.7719 15.3806 10.2988C15.385 9.82568 15.005 9.43863 14.5319 9.43425C14.3968 9.43297 14.2632 9.46371 14.1423 9.52396C13.4716 9.06989 12.7734 8.65782 12.0517 8.29002C12.5355 7.00282 12.7441 5.29395 12.6465 2.96367H13.2279V6.63885C13.2279 7.12916 13.6254 7.52658 14.1157 7.52658H22.4336C22.549 7.76183 22.7443 8.17018 22.9574 8.70282H22.7754C20.079 8.72229 17.9089 10.924 17.9283 13.6204C17.9394 15.1527 18.6691 16.5909 19.8992 17.5046C16.3083 18.45 10.9065 19.573 6.36138 19.2801C7.20028 15.9289 6.19715 13.8649 5.54467 12.9595C6.56073 12.6262 7.55792 12.238 8.53187 11.7965ZM4.65251 13.2125C5.13188 13.7762 6.38358 15.6715 5.46478 19.1558C3.86543 19.0301 2.31208 18.5607 0.91075 17.7798C0.894827 17.6784 0.884452 17.5761 0.87968 17.4735V17.4425C0.844171 16.497 1.19926 14.4508 4.65251 13.2125ZM23.9028 21.0511V20.3098C23.9028 20.0647 23.7041 19.866 23.459 19.866H21.9188C21.6736 19.866 21.4749 20.0647 21.4749 20.3098V21.0511H20.9289V20.3098C20.9289 20.0647 20.7302 19.866 20.4851 19.866H18.9538C18.7086 19.866 18.5099 20.0647 18.5099 20.3098V21.0333C17.9062 20.656 15.7002 19.5597 12.571 21.3085C12.0143 21.4923 11.4465 21.6405 10.871 21.7524V21.4461C10.871 21.201 10.6723 21.0022 10.4272 21.0022H8.89584C8.65071 21.0022 8.45197 21.201 8.45197 21.4461V22.0542H8.22561V21.4328C8.22561 21.1877 8.02687 20.9889 7.78174 20.9889H6.24154C5.99642 20.9889 5.79768 21.1877 5.79768 21.4328V21.961L5.57131 21.9299V21.4328C5.57131 21.1877 5.37257 20.9889 5.12744 20.9889H3.58724C3.36148 20.9873 3.17045 21.1554 3.14338 21.3795C2.35558 21.1201 1.59696 20.7795 0.87968 20.3631V18.7741C2.81492 19.7994 5.31831 20.1855 7.98148 20.1855C15.0566 20.1855 23.1527 17.478 24.107 17.154L24.1114 21.0511H23.9028ZM23.6853 16.3683C23.3081 16.4926 22.3804 16.8122 21.0976 17.154C19.1117 16.1928 18.281 13.8038 19.2421 11.8179C19.8996 10.4595 21.2665 9.58749 22.7754 9.56391C22.9504 9.56147 23.1253 9.57034 23.2992 9.59054L23.3036 9.60386C23.9561 11.4858 24.542 14.1712 23.6853 16.3683Z" fill="#2D383F"/>
<path d="M15.8209 3.48291C15.1076 3.48291 14.5293 4.06121 14.5293 4.77455C14.5317 5.48689 15.1086 6.06375 15.8209 6.06619C16.5343 6.06619 17.1126 5.48789 17.1126 4.77455C17.1126 4.06121 16.5343 3.48291 15.8209 3.48291ZM15.8209 5.17846C15.5978 5.17846 15.417 4.99765 15.417 4.77455C15.417 4.55145 15.5978 4.37064 15.8209 4.37064C16.044 4.37064 16.2249 4.55145 16.2249 4.77455C16.2249 4.99765 16.044 5.17846 15.8209 5.17846Z" fill="#2D383F"/>
</svg>

<svg width="25" height="25" fill="none" xmlns="http://www.w3.org/2000/svg"><path fill="#fff" d="M0 0h25v25H0z"/><path d="M24.64 16.27c.78-2.44.14-5.2-.54-7.11a16.6 16.6 0 0 0-.7-1.7.89.89 0 0 0 .57-.83v-3.7c0-.48-.4-.88-.89-.88h-10.9a.44.44 0 0 0-.45.47c.15 2.66-.04 4.47-.6 5.74a.39.39 0 0 0-.04.04v.07c-.21.46-.5.89-.86 1.26l-.04.02v.03c-.52.5-1.12.9-1.77 1.2-1.14.5-2.32.94-3.51 1.3l-.23.08C.53 13.64 0 16.13 0 17.38v3.23c0 .15.08.3.21.37a12.9 12.9 0 0 0 3.27 1.42.44.44 0 0 0 .56-.45v-.1h.65v.44c0 .22.16.41.38.45.38.06.77.1 1.14.14a.44.44 0 0 0 .48-.44v-.56h.66v.63c0 .24.2.44.44.44.37 0 .75 0 1.15-.05.23-.02.4-.21.4-.45v-.57H10v.39a.44.44 0 0 0 .51.44c.82-.12 1.62-.32 2.4-.57l.07-.03c3.11-1.78 5.08-.32 5.16-.26.08.06.17.1.27.1h.55c.25 0 .45-.2.45-.45v-.75h.63v.74c0 .25.2.45.45.45h1.42c.25 0 .45-.2.45-.45v-.74h.66v.74c0 .25.2.45.44.45h1.1c.24 0 .44-.2.44-.45v-4.78c0-.21-.15-.4-.36-.44ZM14.11 2.95h8.95v3.67h-8.95V2.95ZM8.53 11.8v.02c.37.3.7.63 1 .98a.84.84 0 0 0-.11.45.85.85 0 1 0 .92-.84c-.28-.38-.6-.74-.95-1.05.4-.23.77-.5 1.11-.8.43.41.83.85 1.2 1.3a.85.85 0 1 0 .8-.56h-.11c-.39-.5-.81-.95-1.27-1.38.21-.26.4-.54.56-.84.69.36 1.35.76 1.99 1.2a.86.86 0 1 0 .47-.76c-.67-.45-1.37-.86-2.09-1.23.49-1.29.7-3 .6-5.33h.58v3.68c0 .49.4.89.89.89h8.31c.12.23.31.64.53 1.17h-.18a4.88 4.88 0 0 0-2.88 8.8c-3.6.95-9 2.07-13.54 1.78.84-3.35-.16-5.42-.82-6.32 1.02-.33 2.02-.72 3-1.16ZM4.65 13.2c.48.57 1.73 2.46.81 5.95-1.6-.13-3.15-.6-4.55-1.38l-.03-.3v-.04c-.04-.94.32-2.99 3.77-4.23Zm19.25 7.84v-.74c0-.25-.2-.44-.44-.44h-1.54c-.25 0-.45.2-.45.44v.74h-.54v-.74c0-.25-.2-.44-.44-.44h-1.54c-.24 0-.44.2-.44.44v.72c-.6-.37-2.81-1.47-5.94.28-.56.18-1.12.33-1.7.44v-.3c0-.25-.2-.45-.44-.45H8.9c-.25 0-.45.2-.45.45v.6h-.22v-.62c0-.24-.2-.44-.45-.44H6.24c-.24 0-.44.2-.44.44v.53l-.23-.03v-.5c0-.24-.2-.44-.44-.44H3.59a.44.44 0 0 0-.45.39c-.78-.26-1.54-.6-2.26-1.02v-1.59c1.93 1.03 4.44 1.42 7.1 1.42 7.08 0 15.17-2.71 16.13-3.04v3.9h-.2Zm-.21-4.68c-.38.12-1.31.44-2.6.78a4 4 0 0 1 2.2-7.56l.01.01c.66 1.89 1.24 4.57.39 6.77Z" fill="#2D383F"/><path d="M15.82 3.48a1.3 1.3 0 1 0 0 2.59 1.3 1.3 0 0 0 0-2.59Zm0 1.7a.4.4 0 1 1 0-.8.4.4 0 0 1 0 .8Z" fill="#2D383F"/></svg>
